public/images/hashed/c89c63b194bd1261670ef1ba2ebf0a01.svg

<svg xmlns="http://www.w3.org/2000/svg" width="80" height="80"><defs><linearGradient id="a" x1="0%" x2="100%" y1="100%" y2="0%"><stop offset="0%" stop-color="#4D27A8"/><stop offset="100%" stop-color="#A166FF"/></linearGradient></defs><g fill="none" fill-rule="evenodd"><path fill="url(#a)" d="M0 0h80v80H0z"/><path fill="#FFF" d="M33 23h2v-2h-2v2Zm-2 1v-4a1 1 0 0 1 1-1h4a1 1 0 0 1 1 1v4a1 1 0 0 1-1 1h-4a1 1 0 0 1-1-1Zm10-7h2v-2h-2v2Zm-2 1v-4a1 1 0 0 1 1-1h4a1 1 0 0 1 1 1v4a1 1 0 0 1-1 1h-4a1 1 0 0 1-1-1Zm4 9h2v-2h-2v2Zm-1-4h4a1 1 0 0 1 1 1v4a1 1 0 0 1-1 1h-4a1 1 0 0 1-1-1v-4a1 1 0 0 1 1-1Zm-2 10.5c-1.761 0-8.146-.075-12.299-1.096l10.145 16.062c.1.16.154.345.154.534v2.277c1.404.407 2.701.411 4 .016V49c0-.189.054-.374.154-.534l10.145-16.062C48.146 33.425 41.761 33.5 40 33.5Zm-15.746-2.808a1.322 1.322 0 0 1-.254-.755c0-2.845 9.384-3.371 14.978-3.432l.021 2c-6.872.075-11.071.859-12.551 1.443 1.57.656 6.195 1.552 13.552 1.552 7.338 0 11.957-.891 13.539-1.546-.646-.261-1.984-.647-4.66-.974l.242-1.985c6.062.74 6.879 1.902 6.879 2.942 0 .273-.095.523-.254.755L44 49.29V52a1 1 0 0 1-.627.928 8.785 8.785 0 0 1-3.307.656c-1.11 0-2.242-.215-3.412-.646A1.001 1.001 0 0 1 36 52v-2.71L24.254 30.692Zm22.67 28.925a1 1 0 0 1-.217 1.09l-6 6a.997.997 0 0 1-1.414 0l-6-6A1 1 0 0 1 34 59h3v-3h2v4a1 1 0 0 1-1 1h-1.586L40 64.586 43.586 61H42a1 1 0 0 1-1-1v-4h2v3h3a1 1 0 0 1 .924.617Z"/></g></svg>

<?xml version="1.0" encoding="UTF-8"?>
<svg width="80px" height="80px" viewBox="0 0 80 80" version="1.1" xmlns="http://www.w3.org/2000/svg" xmlns:xlink="http://www.w3.org/1999/xlink">
    <!-- Generator: Sketch 64 (93537) - https://sketch.com -->
    <title>Icon-Architecture/64/Arch_AWS-Glue_64</title>
    <desc>Created with Sketch.</desc>
    <defs>
        <linearGradient x1="0%" y1="100%" x2="100%" y2="0%" id="linearGradient-1">
            <stop stop-color="#4D27A8" offset="0%"></stop>
            <stop stop-color="#A166FF" offset="100%"></stop>
        </linearGradient>
    </defs>
    <g id="Icon-Architecture/64/Arch_AWS-Glue_64" stroke="none" stroke-width="1" fill="none" fill-rule="evenodd">
        <g id="Icon-Architecture-BG/64/Analytics" fill="url(#linearGradient-1)">
            <rect id="Rectangle" x="0" y="0" width="80" height="80"></rect>
        </g>
        <path d="M33,23 L35,23 L35,21 L33,21 L33,23 Z M31,24 L31,20 C31,19.448 31.447,19 32,19 L36,19 C36.553,19 37,19.448 37,20 L37,24 C37,24.552 36.553,25 36,25 L32,25 C31.447,25 31,24.552 31,24 L31,24 Z M41,17 L43,17 L43,15 L41,15 L41,17 Z M39,18 L39,14 C39,13.448 39.447,13 40,13 L44,13 C44.553,13 45,13.448 45,14 L45,18 C45,18.552 44.553,19 44,19 L40,19 C39.447,19 39,18.552 39,18 L39,18 Z M43,27 L45,27 L45,25 L43,25 L43,27 Z M42,23 L46,23 C46.553,23 47,23.448 47,24 L47,28 C47,28.552 46.553,29 46,29 L42,29 C41.447,29 41,28.552 41,28 L41,24 C41,23.448 41.447,23 42,23 L42,23 Z M40,33.5 C38.239,33.5 31.854,33.425 27.701,32.404 L37.846,48.466 C37.946,48.626 38,48.811 38,49 L38,51.277 C39.404,51.684 40.701,51.688 42,51.293 L42,49 C42,48.811 42.054,48.626 42.154,48.466 L52.299,32.404 C48.146,33.425 41.761,33.5 40,33.5 L40,33.5 Z M24.254,30.692 C24.095,30.46 24,30.21 24,29.937 C24,27.092 33.384,26.566 38.978,26.505 L38.999,28.505 C32.127,28.58 27.928,29.364 26.448,29.948 C28.018,30.604 32.643,31.5 40,31.5 C47.338,31.5 51.957,30.609 53.539,29.954 C52.893,29.693 51.555,29.307 48.879,28.98 L49.121,26.995 C55.183,27.735 56,28.897 56,29.937 C56,30.21 55.905,30.46 55.746,30.692 L44,49.29 L44,52 C44,52.408 43.752,52.776 43.373,52.928 C42.282,53.366 41.186,53.584 40.066,53.584 C38.956,53.584 37.824,53.369 36.654,52.938 C36.262,52.793 36,52.419 36,52 L36,49.29 L24.254,30.692 Z M46.924,59.617 C47.079,59.991 46.993,60.421 46.707,60.707 L40.707,66.707 C40.512,66.902 40.256,67 40,67 C39.744,67 39.488,66.902 39.293,66.707 L33.293,60.707 C33.007,60.421 32.921,59.991 33.076,59.617 C33.23,59.244 33.596,59 34,59 L37,59 L37,56 L39,56 L39,60 C39,60.552 38.553,61 38,61 L36.414,61 L40,64.586 L43.586,61 L42,61 C41.447,61 41,60.552 41,60 L41,56 L43,56 L43,59 L46,59 C46.404,59 46.77,59.244 46.924,59.617 L46.924,59.617 Z" id="AWS-Glue_Icon_64_Squid" fill="#FFFFFF"></path>
    </g>
</svg>
